X:301
T:Rakish Paddy
Z: id:dc-reel-279
M:C
L:1/8
K:D Mixolydian
c2AB c2AB|cABG EGG2|Add^c d2ge|dcAG FDDB|!
c2AB c3e|dcAG FDE^C|DEFG ABcA|dcAG FDD2:|!
egg2 agg2|egg2 ed^cd|eaa2 baa2|eaa2 ed^cd|!
egg2 afge|fde^c defg|afge fde^c|dcAG FDD2:|!

